front/public/static/landing/logos/gray/profound.svg

<svg fill="none" height="300" viewBox="0 0 600 300" width="600" xmlns="http://www.w3.org/2000/svg" xmlns:xlink="http://www.w3.org/1999/xlink"><clipPath id="a"><path d="m73 113h454v73h-454z"/></clipPath><g clip-path="url(#a)" fill="#364153"><path d="m73 161.691v-20.355c-.0007-1.474.3507-2.928 1.0253-4.241s1.6531-2.448 2.8551-3.311l26.3616-18.914c1.693-1.215 3.728-1.87 5.816-1.87h.083c2.167 0 4.264.674 6.01 1.927l26.284 18.857c1.202.863 2.181 1.998 2.855 3.311.675 1.313 1.026 2.767 1.026 4.241v16.328c0 1.474-.351 2.928-1.026 4.24-.675 1.313-1.654 2.448-2.856 3.311l-26.336 18.876c-1.73 1.241-3.808 1.909-5.941 1.909-2.14 0-4.225-.668-5.962-1.911-3.4464-2.468-8.9892-6.444-8.9892-6.444v-25.123c0-.33.3739-.521.6436-.329l14.0716 10.094c.141.102.332.102.474 0l17.365-12.458c.053-.037.095-.087.125-.144.029-.057.045-.121.045-.185s-.016-.128-.045-.185c-.03-.057-.072-.107-.125-.144l-17.365-12.458c-.069-.05-.152-.076-.237-.076s-.168.026-.237.076l-35.2774 25.307c-.0607.044-.1325.07-.2072.075-.0747.006-.1495-.009-.2162-.043-.0666-.034-.1225-.086-.1613-.15-.0389-.063-.0593-.137-.0589-.211zm160.596 20.327v-46.146h10.63v7.647h.131c.845-2.65 2.172-4.661 3.98-6.031 1.838-1.368 4.244-2.053 7.218-2.053.758 0 1.429.013 2.012.044.613.029 1.138.073 1.576.131v9.789c-.684-.092-1.369-.165-2.057-.219-1.047-.09-2.098-.134-3.15-.132-1.719 0-3.295.408-4.724 1.224-1.399.787-2.522 1.982-3.368 3.584-.817 1.602-1.225 3.613-1.225 6.03v26.132zm49.367 1.049c-4.52 0-8.5-1.005-11.942-3.016-3.413-2.039-6.08-4.864-8.005-8.477-1.896-3.613-2.844-7.807-2.844-12.585 0-4.779.948-8.973 2.844-12.586 1.925-3.642 4.592-6.482 8.005-8.521 3.442-2.04 7.422-3.059 11.942-3.059 4.549 0 8.53 1.019 11.942 3.059 3.413 2.039 6.066 4.879 7.962 8.521 1.924 3.613 2.887 7.807 2.887 12.586 0 4.778-.963 8.972-2.887 12.585-1.896 3.613-4.549 6.438-7.962 8.477-3.412 2.011-7.393 3.016-11.942 3.016zm0-9.221c2.362 0 4.404-.597 6.124-1.792 1.75-1.194 3.091-2.898 4.024-5.112.963-2.243 1.444-4.894 1.444-7.953 0-3.089-.481-5.739-1.444-7.953-.933-2.243-2.274-3.962-4.024-5.157-1.72-1.224-3.762-1.835-6.124-1.835s-4.419.61-6.168 1.835c-1.749 1.195-3.106 2.914-4.068 5.157-.934 2.214-1.4 4.864-1.4 7.953 0 3.088.466 5.739 1.4 7.953.962 2.214 2.319 3.918 4.068 5.112 1.749 1.195 3.806 1.792 6.168 1.792zm76.162 9.221c-4.519 0-8.5-1.005-11.941-3.016-3.412-2.039-6.081-4.864-8.005-8.477-1.896-3.613-2.843-7.807-2.843-12.585 0-4.779.947-8.973 2.843-12.586 1.924-3.642 4.593-6.482 8.005-8.521 3.441-2.04 7.422-3.059 11.941-3.059 4.55 0 8.53 1.019 11.943 3.059 3.412 2.039 6.065 4.879 7.961 8.521 1.925 3.613 2.887 7.807 2.887 12.586 0 4.778-.962 8.972-2.887 12.585-1.896 3.613-4.549 6.438-7.961 8.477-3.413 2.011-7.393 3.016-11.943 3.016zm0-9.221c2.363 0 4.404-.597 6.125-1.792 1.75-1.194 3.092-2.898 4.025-5.112.961-2.243 1.444-4.894 1.444-7.953 0-3.089-.483-5.739-1.444-7.953-.933-2.243-2.275-3.962-4.025-5.157-1.721-1.224-3.762-1.835-6.125-1.835-2.362 0-4.417.61-6.167 1.835-1.749 1.195-3.106 2.914-4.068 5.157-.933 2.214-1.4 4.864-1.4 7.953 0 3.088.467 5.739 1.4 7.953.962 2.214 2.319 3.918 4.068 5.112 1.75 1.195 3.805 1.792 6.167 1.792zm142.941 9.089c-3.995 0-7.51-1.004-10.542-3.014-3.003-2.011-5.337-4.822-7-8.435-1.633-3.611-2.449-7.807-2.449-12.585 0-4.72.831-8.885 2.493-12.498 1.663-3.612 3.996-6.424 7-8.434 3.003-2.01 6.473-3.015 10.411-3.015 2.011 0 3.878.276 5.599.83 1.749.524 3.324 1.341 4.724 2.447 1.4 1.107 2.596 2.506 3.587 4.195h.088v-25.519h11.023v65.111h-10.848v-7.034h-.088c-.963 1.776-2.158 3.262-3.587 4.455-1.406 1.169-3.024 2.06-4.768 2.623-1.749.583-3.631.873-5.643.873zm2.581-9.22c2.421 0 4.52-.598 6.299-1.792 1.778-1.222 3.164-2.941 4.155-5.155.992-2.243 1.488-4.866 1.488-7.867 0-3-.496-5.608-1.488-7.822-.991-2.213-2.377-3.932-4.155-5.156-1.779-1.224-3.878-1.836-6.299-1.836-2.246 0-4.229.583-5.949 1.748-1.721 1.137-3.063 2.812-4.024 5.025-.963 2.185-1.444 4.866-1.444 8.041 0 3.176.481 5.871 1.444 8.084.961 2.214 2.303 3.889 4.024 5.026 1.72 1.136 3.703 1.704 5.949 1.704z"/><path clip-rule="evenodd" d="m181.342 182.018v-65.112h24.89c4.783 0 8.909.846 12.379 2.535 3.5 1.69 6.183 4.094 8.049 7.21 1.895 3.118 2.843 6.802 2.843 11.056 0 4.283-.963 7.982-2.887 11.1-1.925 3.117-4.652 5.535-8.18 7.254-3.5 1.689-7.64 2.535-12.423 2.535h-13.124v23.422zm30.927-34.61c-1.867.875-4.098 1.312-6.694 1.312h-12.686v-21.938h12.686c2.596 0 4.827.452 6.694 1.354 1.894.876 3.338 2.128 4.33 3.759 1.02 1.602 1.53 3.54 1.53 5.812 0 2.273-.51 4.24-1.53 5.9-.992 1.631-2.436 2.899-4.33 3.801z" fill-rule="evenodd"/><path d="m335.349 135.872v8.871h-9.406v37.275h-11.067v-37.275h-8.311v-8.871h8.311v-6.73c0-2.652.54-4.88 1.619-6.686 1.079-1.835 2.654-3.219 4.724-4.151 2.1-.933 4.667-1.399 7.699-1.399h6.431v8.872h-4.244c-1.866 0-3.194.393-3.98 1.18-.788.785-1.182 2.126-1.182 4.02v4.894zm67.983 47.063c-3.209 0-6.052-.683-8.53-2.053-2.48-1.399-4.419-3.452-5.818-6.161-1.401-2.74-2.101-6.075-2.101-10.008v-28.841h11.025v27.093c0 3.38.815 5.944 2.448 7.692 1.663 1.748 3.952 2.621 6.868 2.621 1.955 0 3.689-.393 5.206-1.18 1.516-.786 2.712-2.009 3.587-3.67.874-1.691 1.312-3.846 1.312-6.467v-26.089h11.067v46.146h-10.848v-7.179c-1.173 1.955-2.558 3.576-4.155 4.863-2.684 2.156-6.037 3.233-10.061 3.233zm43.243-27.006v26.089h-11.024v-46.146h10.849v7.146c1.162-1.947 2.538-3.565 4.111-4.83 2.712-2.156 6.067-3.233 10.062-3.233 3.237 0 6.094.698 8.574 2.097 2.478 1.369 4.417 3.408 5.818 6.118 1.399 2.708 2.099 6.045 2.099 10.008v28.84h-11.067v-27.093c0-3.38-.817-5.944-2.45-7.692-1.604-1.748-3.893-2.621-6.868-2.621-1.924 0-3.645.393-5.162 1.18-1.516.787-2.727 2.009-3.631 3.67-.874 1.661-1.311 3.817-1.311 6.467z"/></g></svg>

<svg width="600" height="300" viewBox="0 0 600 300" fill="none" xmlns="http://www.w3.org/2000/svg">
<g clip-path="url(#clip0_3033_3484)">
<path d="M73 161.691V141.336C72.9993 139.862 73.3507 138.408 74.0253 137.095C74.6999 135.782 75.6784 134.647 76.8804 133.784L103.242 114.87C104.935 113.655 106.97 113 109.058 113H109.141C111.308 113 113.405 113.674 115.151 114.927L141.435 133.784C142.637 134.647 143.616 135.782 144.29 137.095C144.965 138.408 145.316 139.862 145.316 141.336V157.664C145.316 159.138 144.965 160.592 144.29 161.904C143.615 163.217 142.636 164.352 141.434 165.215L115.098 184.091C113.368 185.332 111.29 186 109.157 186C107.017 186 104.932 185.332 103.195 184.089C99.7486 181.621 94.2058 177.645 94.2058 177.645V152.522C94.2058 152.192 94.5797 152.001 94.8494 152.193L108.921 162.287C109.062 162.389 109.253 162.389 109.395 162.287L126.76 149.829C126.813 149.792 126.855 149.742 126.885 149.685C126.914 149.628 126.93 149.564 126.93 149.5C126.93 149.436 126.914 149.372 126.885 149.315C126.855 149.258 126.813 149.208 126.76 149.171L109.395 136.713C109.326 136.663 109.243 136.637 109.158 136.637C109.073 136.637 108.99 136.663 108.921 136.713L73.6436 162.02C73.5829 162.064 73.5111 162.09 73.4364 162.095C73.3617 162.101 73.2869 162.086 73.2202 162.052C73.1536 162.018 73.0977 161.966 73.0589 161.902C73.02 161.839 72.9996 161.765 73 161.691ZM233.596 182.018V135.872H244.226V143.519H244.357C245.202 140.869 246.529 138.858 248.337 137.488C250.175 136.12 252.581 135.435 255.555 135.435C256.313 135.435 256.984 135.448 257.567 135.479C258.18 135.508 258.705 135.552 259.143 135.61V145.399C258.459 145.307 257.774 145.234 257.086 145.18C256.039 145.09 254.988 145.046 253.936 145.048C252.217 145.048 250.641 145.456 249.212 146.272C247.813 147.059 246.69 148.254 245.844 149.856C245.027 151.458 244.619 153.469 244.619 155.886V182.018H233.596ZM282.963 183.067C278.443 183.067 274.463 182.062 271.021 180.051C267.608 178.012 264.941 175.187 263.016 171.574C261.12 167.961 260.172 163.767 260.172 158.989C260.172 154.21 261.12 150.016 263.016 146.403C264.941 142.761 267.608 139.921 271.021 137.882C274.463 135.842 278.443 134.823 282.963 134.823C287.512 134.823 291.493 135.842 294.905 137.882C298.318 139.921 300.971 142.761 302.867 146.403C304.791 150.016 305.754 154.21 305.754 158.989C305.754 163.767 304.791 167.961 302.867 171.574C300.971 175.187 298.318 178.012 294.905 180.051C291.493 182.062 287.512 183.067 282.963 183.067ZM282.963 173.846C285.325 173.846 287.367 173.249 289.087 172.054C290.837 170.86 292.178 169.156 293.111 166.942C294.074 164.699 294.555 162.048 294.555 158.989C294.555 155.9 294.074 153.25 293.111 151.036C292.178 148.793 290.837 147.074 289.087 145.879C287.367 144.655 285.325 144.044 282.963 144.044C280.601 144.044 278.544 144.654 276.795 145.879C275.046 147.074 273.689 148.793 272.727 151.036C271.793 153.25 271.327 155.9 271.327 158.989C271.327 162.077 271.793 164.728 272.727 166.942C273.689 169.156 275.046 170.86 276.795 172.054C278.544 173.249 280.601 173.846 282.963 173.846ZM359.125 183.067C354.606 183.067 350.625 182.062 347.184 180.051C343.772 178.012 341.103 175.187 339.179 171.574C337.283 167.961 336.336 163.767 336.336 158.989C336.336 154.21 337.283 150.016 339.179 146.403C341.103 142.761 343.772 139.921 347.184 137.882C350.625 135.842 354.606 134.823 359.125 134.823C363.675 134.823 367.655 135.842 371.068 137.882C374.48 139.921 377.133 142.761 379.029 146.403C380.954 150.016 381.916 154.21 381.916 158.989C381.916 163.767 380.954 167.961 379.029 171.574C377.133 175.187 374.48 178.012 371.068 180.051C367.655 182.062 363.675 183.067 359.125 183.067ZM359.125 173.846C361.488 173.846 363.529 173.249 365.25 172.054C367 170.86 368.342 169.156 369.275 166.942C370.236 164.699 370.719 162.048 370.719 158.989C370.719 155.9 370.236 153.25 369.275 151.036C368.342 148.793 367 147.074 365.25 145.879C363.529 144.655 361.488 144.044 359.125 144.044C356.763 144.044 354.708 144.654 352.958 145.879C351.209 147.074 349.852 148.793 348.89 151.036C347.957 153.25 347.49 155.9 347.49 158.989C347.49 162.077 347.957 164.728 348.89 166.942C349.852 169.156 351.209 170.86 352.958 172.054C354.708 173.249 356.763 173.846 359.125 173.846ZM502.066 182.935C498.071 182.935 494.556 181.931 491.524 179.921C488.521 177.91 486.187 175.099 484.524 171.486C482.891 167.875 482.075 163.679 482.075 158.901C482.075 154.181 482.906 150.016 484.568 146.403C486.231 142.791 488.564 139.979 491.568 137.969C494.571 135.959 498.041 134.954 501.979 134.954C503.99 134.954 505.857 135.23 507.578 135.784C509.327 136.308 510.902 137.125 512.302 138.231C513.702 139.338 514.898 140.737 515.889 142.426H515.977V116.907H527V182.018H516.152V174.984H516.064C515.101 176.76 513.906 178.246 512.477 179.439C511.071 180.608 509.453 181.499 507.709 182.062C505.96 182.645 504.078 182.935 502.066 182.935ZM504.647 173.715C507.068 173.715 509.167 173.117 510.946 171.923C512.724 170.701 514.11 168.982 515.101 166.768C516.093 164.525 516.589 161.902 516.589 158.901C516.589 155.901 516.093 153.293 515.101 151.079C514.11 148.866 512.724 147.147 510.946 145.923C509.167 144.699 507.068 144.087 504.647 144.087C502.401 144.087 500.418 144.67 498.698 145.835C496.977 146.972 495.635 148.647 494.674 150.86C493.711 153.045 493.23 155.726 493.23 158.901C493.23 162.077 493.711 164.772 494.674 166.985C495.635 169.199 496.977 170.874 498.698 172.011C500.418 173.147 502.401 173.715 504.647 173.715Z" fill="#364153"/>
<path fill-rule="evenodd" clip-rule="evenodd" d="M181.342 182.018V116.906H206.232C211.015 116.906 215.141 117.752 218.611 119.441C222.111 121.131 224.794 123.535 226.66 126.651C228.555 129.769 229.503 133.453 229.503 137.707C229.503 141.99 228.54 145.689 226.616 148.807C224.691 151.924 221.964 154.342 218.436 156.061C214.936 157.75 210.796 158.596 206.013 158.596H192.889V182.018H181.342ZM212.269 147.408C210.402 148.283 208.171 148.72 205.575 148.72H192.889V126.782H205.575C208.171 126.782 210.402 127.234 212.269 128.136C214.163 129.012 215.607 130.264 216.599 131.895C217.619 133.497 218.129 135.435 218.129 137.707C218.129 139.98 217.619 141.947 216.599 143.607C215.607 145.238 214.163 146.506 212.269 147.408Z" fill="#364153"/>
<path d="M335.349 135.872V144.743H325.943V182.018H314.876V144.743H306.565V135.872H314.876V129.142C314.876 126.49 315.416 124.262 316.495 122.456C317.574 120.621 319.149 119.237 321.219 118.305C323.319 117.372 325.886 116.906 328.918 116.906H335.349V125.778H331.105C329.239 125.778 327.911 126.171 327.125 126.958C326.337 127.743 325.943 129.084 325.943 130.978V135.872H335.349ZM403.332 182.935C400.123 182.935 397.28 182.252 394.802 180.882C392.322 179.483 390.383 177.43 388.984 174.721C387.583 171.981 386.883 168.646 386.883 164.713V135.872H397.908V162.965C397.908 166.345 398.723 168.909 400.356 170.657C402.019 172.405 404.308 173.278 407.224 173.278C409.179 173.278 410.913 172.885 412.43 172.098C413.946 171.312 415.142 170.089 416.017 168.428C416.891 166.737 417.329 164.582 417.329 161.961V135.872H428.396V182.018H417.548V174.839C416.375 176.794 414.99 178.415 413.393 179.702C410.709 181.858 407.356 182.935 403.332 182.935ZM446.575 155.929V182.018H435.551V135.872H446.4V143.018C447.562 141.071 448.938 139.453 450.511 138.188C453.223 136.032 456.578 134.955 460.573 134.955C463.81 134.955 466.667 135.653 469.147 137.052C471.625 138.421 473.564 140.46 474.965 143.17C476.364 145.878 477.064 149.215 477.064 153.178V182.018H465.997V154.925C465.997 151.545 465.18 148.981 463.547 147.233C461.943 145.485 459.654 144.612 456.679 144.612C454.755 144.612 453.034 145.005 451.517 145.792C450.001 146.579 448.79 147.801 447.886 149.462C447.012 151.123 446.575 153.279 446.575 155.929Z" fill="#364153"/>
</g>
<defs>
<clipPath id="clip0_3033_3484">
<rect width="454" height="73" fill="white" transform="translate(73 113)"/>
</clipPath>
</defs>
</svg>
